X:621
T:St. Anne's Reel
C:Joe Buchanan's Scottish Tome - Page 183.2
I:183 2
Z:Carl Allison
R:Reel
L:1/8
M:4/4
K:D
(de) | "D"fedc "G"edcB | "D"A2 (FA) DAFA | "G"B2 (GB) EBGB | "D"A2 (FA) DAFA | 
"D"fedc "G"edcB | "D"A2 (FA) DAFA | "E7"((3BcB) (ed) c"A7"ABc | "D"d2 (dc) d2 :| 
(de) | "D"f2 (fg) "Bm"fdef | "Em"ga(gf) g2 (gf) | "A"edcB Aceg | "D"baa^g a2 (a=g) | 
"D"f2 (fg) fdef | "Em"gagf g2 (gf) | "A"edcB Aceg | "D"fddc d2 :|

